X: 25896
T: Matt Teehan's
R: polka
M: 2/4
K: Dmajor
|:FA d2|cB B2|E2 Bc|BA A2|
FA d2|cB B2|ce Bc|ed d2:|
|:af ge|fd d>f|eA ce|dc BA|
af ge|fd d>f|eA ce|1 d2 df:|2 d2 d2||

